icon-themes/sifr_svg/cmd/lc_arrowshapes.s-sharped-arrow.svg

<svg viewBox="0 0 24 24" xmlns="http://www.w3.org/2000/svg"><g fill="#555753"><path d="m16 0v4h-1-2.427734c-3.5504039 0-7.5390629 3.4010213-7.5390629 7.025391 0 1.902217 1.4351808 3.179692 1.4277344 4.6875-.00789.724831-.5758038 1.280354-1.2851563 1.3125l-4.1757812-.025391v6h5.1425781c3.5504019 0 6.8574219-2.875631 6.8574219-6.5 0-1.84375-1.695313-4.166016-1.695312-5.478516 0-.724874.557497-1.021484 1.267578-1.021484h2.427734 1v4h1.777344l5.222656-5.875v-2.25l-5.222656-5.875zm2 3.8613281 3 3.1386719-3 3.138672v-2.138672h-3-2c-2.509128 0-3.9643498 1.3112128-4 3 .057901 1.767274 2 3 2 5.5 0 2.407782-2.3869469 4.5-4.8574219 4.5h-3.1425781v-2c1.0774468.000006 1.1882566.02636 2.265625.02344 1.7336798-.02342 3.1953125-1.526539 3.1953125-3.310547.0594456-1.892529-1.4616327-2.712527-1.4277344-4.705081-.0338983-3.0074465 2.3753475-5.007812 5.9667969-5.007812h2 3z"/><path d="m18 3.8613281 3 3.1386719-3 3.138672v-2.138672h-3-2c-2.509128 0-3.9643498 1.3112128-4 3 .057901 1.767274 2 3 2 5.5 0 2.407782-2.3869469 4.5-4.8574219 4.5h-3.1425781v-2c1.0774468.000006 1.1882566.02636 2.265625.02344 1.7336798-.02342 3.1953125-1.526539 3.1953125-3.310547.0594456-1.892529-1.4616327-2.712527-1.4277344-4.705081-.0338983-3.0074465 2.3753475-5.007812 5.9667969-5.007812h2 3z" opacity=".35"/></g></svg>

<svg viewBox="0 0 24 24" xmlns="http://www.w3.org/2000/svg">
  <path
     style="fill:#555753"
     d="m 16,0 v 4 h -1 -2.427734 c -3.5504039,0 -7.5390629,3.4010213 -7.5390629,7.025391 0,1.902217 1.4351808,3.179692 1.4277344,4.6875 -0.00789,0.724831 -0.5758038,1.280354 -1.2851563,1.3125 L 1,17 v 6 H 6.1425781 C 9.69298,23 13,20.124369 13,16.5 13,14.65625 11.304687,12.333984 11.304688,11.021484 11.304688,10.29661 11.862185,10 12.572266,10 H 15 16 v 4 h 1.777344 L 23,8.125 V 5.875 L 17.777344,0 Z M 18,3.8613281 21,7 18,10.138672 V 8 h -3 -2 c -2.509128,0 -3.9643498,1.3112128 -4,3 0.057901,1.767274 2,3 2,5.5 C 11,18.907782 8.6130531,21 6.1425781,21 H 3 v -2 c 1.0774468,6e-6 1.1882566,0.02636 2.265625,0.02344 C 6.9993048,19.00002 8.4609375,17.496901 8.4609375,15.712893 8.5203831,13.820364 6.9993048,13.000366 7.0332031,11.007812 6.9993048,8.0003655 9.4085506,6 13,6 h 2 3 z"
     />
  <path
     style="fill:#555753;opacity:0.35"
     d="M 18,3.8613281 21,7 18,10.138672 V 8 h -3 -2 c -2.509128,0 -3.9643498,1.3112128 -4,3 0.057901,1.767274 2,3 2,5.5 C 11,18.907782 8.6130531,21 6.1425781,21 H 3 v -2 c 1.0774468,6e-6 1.1882566,0.02636 2.265625,0.02344 C 6.9993048,19.00002 8.4609375,17.496901 8.4609375,15.712893 8.5203831,13.820364 6.9993048,13.000366 7.0332031,11.007812 6.9993048,8.0003655 9.4085506,6 13,6 h 2 3 z"
     />
</svg>
